X: 21018
T: July 28th
R: waltz
M: 3/4
K: Dmajor
|:A,2 D3 F|E/F/A D2 d2|B2 BA AF|G2 FE FA|A,2 D3 F|E/F/A D2 d2|
e2 dc AF|B3 A Bc|dD c3 D|Bc A3 F|GA, F2 EF|FA GF ED|
CD ED EF|E/F/A d2 cA|AG GF GA|D6:|
|:dc AF dc|B4 AF|EF FD FA|B6|dc AA cd|B4 AF|
A2 AF A/B/d|e6|ef de Bd|cA F2 EF|A3 F ED|B,6|
A,2 A,B, DF|E/F/A D2 d2|B2 AF EF|D6:|

